X:1
T:Title
%%score { 1 | 2 }
L:1/8
M:4/4
K:G
V:1 treble nm="Grand Piano"
V:2 bass 
V:1
 G2 A2 B2 AG | c2 B2 A2 G2 | A3 A Bcde | d2 ^c>d d4 | G2 A2 B2 AG | c2 B2 A2 G2 | A3 A Bcde | %7
 d2 ^c>d d4 | A2 B2 c2 d2 | e2 dc c2 c2 | d2 d2 efga | g2 f>g g2 g2 | d2 cB e2 d2 | cdcB A4 | %14
 Bc d2 c2 BA | A3 G G4 |] %16
V:2
 G,,2 F,,2 G,,2 B,,2 | A,,2 G,,2 D,2 G,2 | F,E,F,D, G,2 F,G, | A,2 A,,2 D,4 | G,,2 F,,2 G,,2 B,,2 | %5
 A,,2 G,,2 D,2 G,2 | F,E,F,D, G,2 F,G, | A,2 A,,2 D,4 | D,2 B,,2 A,,2 B,,2 | C,2 G,,2 C,4 | %10
 B,,A,,B,,G,, C,2 B,,C, | D,2 D,,2 G,,4 | B,,2 G,,2 C,2 B,,2 | A,,2 G,,2 D,E,F,D, | %14
 G,2 B,,2 A,,2 G,,C, | D,2 D,,2 G,,4 |] %16

